X:1
T:Title
%%score { 1 | 2 }
L:1/8
Q:1/4=100
M:4/4
K:Bb
V:1 treble nm="Grand Piano"
V:2 bass 
V:1
 (3[DF][DF][DF] [DF]>[EG] [DF]2 [B,D]>[DF] | [DB]>[Fc] [GB]>[EG] [DF]4 | (3EEE E>F E2 c>c | %3
w: James~M.~Black * * * * * * *|||
 [=Ec]>[EB] [EA]>[EB] [Fc]4 | (3[Fd][Fd][Fd] [Fd]>[Ge] [Fd]2 [DB]>[DB] | [DB]>B c>d e4 | %6
w: |||
 (3BBB A>G F2 B>B | B>A G>A [DB]4 | (3[Fd][Fd][Fd] [Fd]>[Ge] [Fd]2 [DB]2 | %9
w: |||
 (3[DF][DG][DA] [DB]>[Dc] [EA]4 | (3AAA A>B c2 F>c | B>B [Gc]>[Gc] [^Fd]4 | %12
w: |||
 (3[Fd][Fd][Fd] [Fd]>[Ge] [Fd]2 [DF]2 | (3[DB]BB c>d e4 | (3BBB A>G F2 B>B | %15
w: |||
[M:8/4] B>AG>A [DB]4 z8 |] %16
w: |
V:2
 (3[B,,B,][B,,B,][B,,B,] [B,,B,]>[B,,B,] [B,,B,]2 [B,,F,]>[B,,B,] | %1
 [B,,B,]>[D,B,] [E,B,]>[E,B,] [B,,B,]4 | %2
 (3[F,A,C][F,A,C][F,A,C] [F,A,C]>[F,B,D] [F,A,C]2 [F,E]>[F,E] | %3
 [C,G,]>[C,G,] [C,C]>[C,B,] [F,A,]4 | %4
 (3[B,,B,][B,,B,][B,,B,] [B,,B,]>[B,,B,] [B,,B,]2 [B,,B,]>[B,,B,] | %5
 [B,,B,]>[K:treble][B,DF] [A,CF]>[_A,B,F][K:bass] [G,B,E]4 | %6
 (3[=E,G,_D][E,G,D][E,G,D] [E,A,D]>[E,B,D] [F,B,=D]2 [F,B,D]>[F,B,D] | %7
 [F,DF]>[F,CF] [F,B,E]>[F,CE] [B,,B,]4 | %8
 (3[B,,B,][B,,B,][B,,B,] [B,,B,]>[B,,B,] [B,,B,]2 [B,,B,]2 | %9
 (3[B,,B,][B,,B,][B,,B,] [B,,F,]>[B,,F,] [C,F,]4 | %10
 (3[F,CE][F,CE][F,CE] [F,CE]>[F,B,E] [F,A,E]2 [F,A,E]>[F,A,E] | %11
 [G,B,D]>[G,B,D] [E,B,]>[E,G,] [D,A,]4 | %12
 (3[B,,B,][B,,B,][B,,B,] [B,,B,]>[B,,B,] [B,,B,]2 [B,,B,]2 | %13
 (3[B,,B,][K:treble][B,DF][B,DF] [A,CF]>[_A,B,F] [G,B,E]4 | %14
 (3[=E,G,_D][E,G,D][E,G,D] [E,A,D]>[E,B,D] [F,B,=D]2 [F,B,D]>[F,B,D] | %15
[M:8/4] [F,DF]>[F,CF][F,B,E]>[F,CE] [B,,B,]4 z8 |] %16

